src/assets/design/mountains.svg

<svg xmlns="http://www.w3.org/2000/svg" xml:space="preserve" style="fill-rule:evenodd;clip-rule:evenodd;stroke-linecap:round;stroke-linejoin:round;stroke-miterlimit:1.5" viewBox="0 0 1040 250"><g transform="matrix(.94546 0 0 .89286 -302.545 -1000)"><path d="M320 1120h1100v280H320z" style="fill:none"/><clipPath id="a"><path d="M320 1120h1100v280H320z"/></clipPath><g clip-path="url(#a)"><path d="M202.38 1207.31 260 1370H90l57.62-162.69z" style="fill:#c1c3c4;stroke:#000;stroke-width:.81px" transform="matrix(3.60857 0 0 1.16667 239.288 -180.414)"/><path d="m623.322 1220-4.766 6.29-16.293-2.17-10.5 4.78-13.035-4.78-14.482 3.91-8.568-8.03 33.822-35z" style="fill:#fff;stroke:#000;stroke-width:.81px" transform="matrix(2.92123 0 0 2.57694 -851.279 -1915.757)"/><path d="M202.38 1207.31 260 1370H90l57.62-162.69z" style="fill:#929697;stroke:#000;stroke-width:1.47px" transform="matrix(1.8665 0 0 .98 819.152 65.625)"/><path d="m623.322 1220-12.647 3.63-14-3.63h-14l-14 3.11-12.997-3.11 33.822-35z" style="fill:#fff;stroke:#000;stroke-width:1.21px" transform="matrix(1.51098 0 0 2.16464 255.065 -1392.067)"/><path d="M202.38 1207.31 260 1370H90l57.62-162.69z" style="fill:#929697;stroke:#000;stroke-width:1.47px" transform="matrix(1.8665 0 0 .98 248 64.124)"/><path d="m623.322 1220-12.647 3.81-11.9-3.11h-18.2l-15.4 3.62-9.497-4.32 33.822-35z" style="fill:#fff;stroke:#000;stroke-width:1.21px" transform="matrix(1.51098 0 0 2.16464 -316.086 -1393.568)"/><path d="M202.38 1207.31 260 1370H90l57.62-162.69z" style="stroke:#000;stroke-width:2.21px" transform="matrix(1.30655 0 0 .50706 1069.98 710.541)"/><path d="m623.322 1220-17.072 5-16.75-5-14.25 6-19.572-6 33.822-35z" style="fill:#fff;stroke:#000;stroke-width:2.05px" transform="matrix(1.05769 0 0 1.12 675.12 -43.68)"/><path d="M202.38 1207.31 260 1370H90l57.62-162.69z" style="stroke:#000;stroke-width:2.07px" transform="matrix(1.30655 0 0 .74667 816.664 385.292)"/><path d="m623.322 1220-13.572 4.83-20.25-4.83-19.75 4.83-14.072-4.83 33.822-35z" style="fill:#fff;stroke:#000;stroke-width:1.63px" transform="matrix(1.05769 0 0 1.64924 421.803 -725.33)"/><path d="M202.38 1207.31 260 1370H90l57.62-162.69z" style="stroke:#000;stroke-width:2.07px" transform="matrix(1.30655 0 0 .74667 467.626 385.292)"/><path d="m623.322 1220-18.572 4.83-15.25-3.39-14.75 4.07-19.072-5.51 33.822-35z" style="fill:#fff;stroke:#000;stroke-width:1.63px" transform="matrix(1.05769 0 0 1.64924 72.765 -725.33)"/><path d="M202.38 1207.31 260 1370H90l57.62-162.69z" style="stroke:#000;stroke-width:2.21px" transform="matrix(1.30655 0 0 .50706 208.492 710.541)"/><path d="m623.322 1220-13.572 10-20.25-7-20.75 5-13.072-8 33.822-35z" style="fill:#fff;stroke:#000;stroke-width:2.05px" transform="matrix(1.05769 0 0 1.12 -186.37 -43.68)"/></g></g></svg>

<?xml version="1.0" encoding="UTF-8" standalone="no"?>
<!DOCTYPE svg PUBLIC "-//W3C//DTD SVG 1.1//EN" "http://www.w3.org/Graphics/SVG/1.1/DTD/svg11.dtd">
<svg width="100%" height="100%" viewBox="0 0 1040 250" version="1.1" xmlns="http://www.w3.org/2000/svg" xmlns:xlink="http://www.w3.org/1999/xlink" xml:space="preserve" xmlns:serif="http://www.serif.com/" style="fill-rule:evenodd;clip-rule:evenodd;stroke-linecap:round;stroke-linejoin:round;stroke-miterlimit:1.5;">
    <g id="Artboard1" transform="matrix(0.945455,0,0,0.892857,-302.545,-1000)">
        <rect x="320" y="1120" width="1100" height="280" style="fill:none;"/>
        <clipPath id="_clip1">
            <rect x="320" y="1120" width="1100" height="280"/>
        </clipPath>
        <g clip-path="url(#_clip1)">
            <g id="mountains" transform="matrix(1.05769,0,0,1.12,314.976,-127.68)">
                <g id="mid2" transform="matrix(2.7619,0,0,2.30084,-2043.07,-1769.06)">
                    <g transform="matrix(1.23529,0,0,0.452733,713.824,748.412)">
                        <path d="M202.38,1207.31L260,1370L90,1370L147.62,1207.31L202.38,1207.31Z" style="fill:rgb(193,195,196);stroke:black;stroke-width:0.81px;"/>
                    </g>
                    <g transform="matrix(1,0,0,1,340.5,75)">
                        <path d="M623.322,1220L618.556,1226.29L602.263,1224.12L591.763,1228.9L578.728,1224.12L564.246,1228.03L555.678,1220L589.5,1185L623.322,1220Z" style="fill:white;stroke:black;stroke-width:0.81px;"/>
                    </g>
                </g>
                <g id="mid21" serif:id="mid2" transform="matrix(1.42857,0,0,1.93271,-543.071,-1273.87)">
                    <g transform="matrix(1.23529,0,0,0.452733,713.824,748.412)">
                        <path d="M202.38,1207.31L260,1370L90,1370L147.62,1207.31L202.38,1207.31Z" style="fill:rgb(146,150,151);stroke:black;stroke-width:1.47px;"/>
                    </g>
                    <g transform="matrix(1,0,0,1,340.5,75)">
                        <path d="M623.322,1220L610.675,1223.63L596.675,1220L582.675,1220L568.675,1223.11L555.678,1220L589.5,1185L623.322,1220Z" style="fill:white;stroke:black;stroke-width:1.21px;"/>
                    </g>
                </g>
                <g id="mid1" transform="matrix(1.42857,0,0,1.93271,-1083.07,-1275.21)">
                    <g transform="matrix(1.23529,0,0,0.452733,713.824,748.412)">
                        <path d="M202.38,1207.31L260,1370L90,1370L147.62,1207.31L202.38,1207.31Z" style="fill:rgb(146,150,151);stroke:black;stroke-width:1.47px;"/>
                    </g>
                    <g transform="matrix(1,0,0,1,340.5,75)">
                        <path d="M623.322,1220L610.675,1223.81L598.775,1220.7L580.575,1220.7L565.175,1224.32L555.678,1220L589.5,1185L623.322,1220Z" style="fill:white;stroke:black;stroke-width:1.21px;"/>
                    </g>
                </g>
                <g id="little-mountains" serif:id="little mountains">
                    <g id="little4">
                        <g transform="matrix(1.23529,0,0,0.452733,713.824,748.412)">
                            <path d="M202.38,1207.31L260,1370L90,1370L147.62,1207.31L202.38,1207.31Z" style="stroke:black;stroke-width:2.21px;"/>
                        </g>
                        <g transform="matrix(1,0,0,1,340.5,75)">
                            <path d="M623.322,1220L606.25,1225L589.5,1220L575.25,1226L555.678,1220L589.5,1185L623.322,1220Z" style="fill:white;stroke:black;stroke-width:2.05px;"/>
                        </g>
                    </g>
                    <g id="little3" transform="matrix(1,0,0,1.47254,-319.5,-655.4)">
                        <g transform="matrix(1.23529,0,0,0.452733,793.824,756.116)">
                            <path d="M202.38,1207.31L260,1370L90,1370L147.62,1207.31L202.38,1207.31Z" style="stroke:black;stroke-width:2.07px;"/>
                        </g>
                        <g transform="matrix(1,0,0,1,420.5,82.7038)">
                            <path d="M623.322,1220L609.75,1224.83L589.5,1220L569.75,1224.83L555.678,1220L589.5,1185L623.322,1220Z" style="fill:white;stroke:black;stroke-width:1.63px;"/>
                        </g>
                    </g>
                    <g id="little2" transform="matrix(1,0,0,1.47254,-569.5,-644.056)">
                        <g transform="matrix(1.23529,0,0,0.452733,713.824,748.412)">
                            <path d="M202.38,1207.31L260,1370L90,1370L147.62,1207.31L202.38,1207.31Z" style="stroke:black;stroke-width:2.07px;"/>
                        </g>
                        <g transform="matrix(1,0,0,1,340.5,75)">
                            <path d="M623.322,1220L604.75,1224.83L589.5,1221.44L574.75,1225.51L555.678,1220L589.5,1185L623.322,1220Z" style="fill:white;stroke:black;stroke-width:1.63px;"/>
                        </g>
                    </g>
                    <g id="little1" transform="matrix(1,0,0,1,-814.5,0)">
                        <g transform="matrix(1.23529,0,0,0.452733,713.824,748.412)">
                            <path d="M202.38,1207.31L260,1370L90,1370L147.62,1207.31L202.38,1207.31Z" style="stroke:black;stroke-width:2.21px;"/>
                        </g>
                        <g transform="matrix(1,0,0,1,340.5,75)">
                            <path d="M623.322,1220L609.75,1230L589.5,1223L568.75,1228L555.678,1220L589.5,1185L623.322,1220Z" style="fill:white;stroke:black;stroke-width:2.05px;"/>
                        </g>
                    </g>
                </g>
            </g>
        </g>
    </g>
</svg>
